static/svg/logo-black.svg

<svg height="106" viewBox="0 0 802 106" width="802" xmlns="http://www.w3.org/2000/svg"><path d="m21.8171319 87.0646766v-30.1057214h10.3686238l16.0009625 30.1057214h21.1212706l-18.9451397-33.4365671c4.5229388-1.964345 8.128489-4.932214 10.8166507-8.903607s4.0322426-9.0317164 4.0322426-15.1809702c0-4.9535655-.8533847-9.0957711-2.560154-12.4266169-1.7067694-3.3308457-4.010908-5.9997927-6.9124159-8.00684077-2.9015078-2.0070481-6.2937119-3.43760365-10.1766121-4.29166667-3.8829003-.85406302-8.0431505-1.28109453-12.4807508-1.28109453h-30.0818096v83.52736317zm9.7285853-45.0945273h-9.7285853v-23.4440299h9.7285853c4.9496311 0 8.7258582.8113599 11.3286815 2.4340796 2.6028232 1.6227197 3.9042348 4.4838309 3.9042348 8.5833333 0 4.0995025-1.3014116 7.195481-3.9042348 9.2879354-2.6028233 2.0924544-6.3790504 3.1386816-11.3286815 3.1386816zm110.5417608 45.0945273v-15.8855721h-34.690087v-19.2164179h28.417709v-15.7574627h-28.417709v-16.7823383h33.41001v-15.88557217h-52.2271422v83.52736317zm58.570634 1.5373134c11.008662 0 20.01187-4.0995024 27.009624-12.2985074l-9.9846-11.7860697c-2.048124 2.2205639-4.416266 4.0781509-7.104428 5.5727612-2.688161 1.4946103-5.739012 2.2419155-9.15255 2.2419155-6.14437 0-11.051332-2.3700249-14.720886-7.1100747-3.669554-4.7400497-5.504331-11.4230928-5.504331-20.0491293 0-4.1849088.533365-7.9427861 1.600096-11.2736319 1.066731-3.3308457 2.517485-6.1492537 4.352262-8.4552238 1.834777-2.3059702 4.010908-4.078151 6.528393-5.3165423 2.517485-1.2383914 5.184312-1.8575871 8.000481-1.8575871 2.986846 0 5.653674.6191957 8.000481 1.8575871 2.346808 1.2383913 4.586943 2.8397595 6.720405 4.8041044l9.9846-12.0422885c-2.816169-2.90381428-6.357715-5.44465176-10.624639-7.62251246-4.266923-2.17786069-9.088547-3.26679104-14.46487-3.26679104-5.290985 0-10.325954.98217247-15.104909 2.94651741-4.778954 1.96434494-8.960539 4.82545606-12.544754 8.58333329-3.584216 3.7578773-6.443054 8.348466-8.576516 13.7717662s-3.200193 11.5939055-3.200193 18.5118159c0 7.0033168 1.024062 13.1739221 3.072185 18.511816 2.048123 5.3378938 4.842958 9.8003731 8.384505 13.3874378 3.541546 3.5870646 7.659127 6.2987147 12.352743 8.1349502 4.693615 1.8362355 9.685916 2.7543532 14.976901 2.7543532zm75.979681 0c5.632339 0 10.773981-1.003524 15.424928-3.0105721 4.650946-2.0070481 8.640519-4.8895108 11.96872-8.647388 3.3282-3.7578773 5.909688-8.3271145 7.744466-13.7077115 1.834777-5.380597 2.752165-11.4871476 2.752165-18.3196517 0-6.7470979-.917388-12.7895937-2.752165-18.1274876-1.834778-5.3378939-4.416266-9.8430763-7.744466-13.5155473-3.328201-3.67247094-7.317774-6.46952732-11.96872-8.39116911-4.650947-1.92164179-9.792589-2.88246269-15.424928-2.88246269s-10.773982.9608209-15.424928 2.88246269c-4.650947 1.92164179-8.64052 4.6973466-11.96872 8.32711441-3.3282 3.6297678-5.909689 8.1135987-7.744466 13.4514926-1.834777 5.3378938-2.752166 11.4230928-2.752166 18.255597 0 6.8325041.917389 12.9390547 2.752166 18.3196517s4.416266 9.9498342 7.744466 13.7077115c3.3282 3.7578772 7.317773 6.6403399 11.96872 8.647388 4.650946 2.0070481 9.792589 3.0105721 15.424928 3.0105721zm0-16.2699004c-5.717677 0-10.240616-2.4554312-13.568816-7.3662936-3.328201-4.9108623-4.992301-11.5939055-4.992301-20.0491293 0-8.3698176 1.6641-14.9033997 4.992301-19.6007463 3.3282-4.6973466 7.851139-7.0460199 13.568816-7.0460199s10.240616 2.3486733 13.568816 7.0460199 4.9923 11.2309287 4.9923 19.6007463c0 8.4552238-1.6641 15.138267-4.9923 20.0491293-3.3282 4.9108624-7.851139 7.3662936-13.568816 7.3662936zm78.667843 14.732587v-29.5932836c0-4.9535655-.27735-10.0779436-.83205-15.3731343s-1.045397-10.2487562-1.472089-14.8606965h.512031l8.192493 18.1915423 21.761309 41.6355721h19.329163v-83.52736317h-17.921078v29.46517417c0 4.9535655.27735 10.1633499.83205 15.6293532s1.045396 10.4195688 1.472088 14.8606965h-.512031l-8.192492-18.4477612-21.76131-41.50746267h-19.329162v83.52736317zm109.133675 1.5373134c11.008663 0 20.011871-4.0995024 27.009625-12.2985074l-9.9846-11.7860697c-2.048124 2.2205639-4.416266 4.0781509-7.104428 5.5727612s-5.739012 2.2419155-9.15255 2.2419155c-6.14437 0-11.051332-2.3700249-14.720886-7.1100747-3.669554-4.7400497-5.504331-11.4230928-5.504331-20.0491293 0-4.1849088.533365-7.9427861 1.600096-11.2736319 1.066731-3.3308457 2.517485-6.1492537 4.352262-8.4552238 1.834777-2.3059702 4.010908-4.078151 6.528393-5.3165423 2.517484-1.2383914 5.184312-1.8575871 8.000481-1.8575871 2.986846 0 5.653673.6191957 8.000481 1.8575871 2.346808 1.2383913 4.586943 2.8397595 6.720405 4.8041044l9.9846-12.0422885c-2.816169-2.90381428-6.357716-5.44465176-10.624639-7.62251246-4.266923-2.17786069-9.088547-3.26679104-14.46487-3.26679104-5.290985 0-10.325955.98217247-15.104909 2.94651741s-8.960539 4.82545606-12.544754 8.58333329c-3.584216 3.7578773-6.443055 8.348466-8.576516 13.7717662-2.133462 5.4233002-3.200193 11.5939055-3.200193 18.5118159 0 7.0033168 1.024062 13.1739221 3.072185 18.511816 2.048123 5.3378938 4.842958 9.8003731 8.384504 13.3874378 3.541547 3.5870646 7.659128 6.2987147 12.352743 8.1349502 4.693616 1.8362355 9.685916 2.7543532 14.976901 2.7543532zm100.301145-1.5373134v-15.8855721h-34.690087v-19.2164179h28.417709v-15.7574627h-28.417709v-16.7823383h33.41001v-15.88557217h-52.227142v83.52736317zm42.569671 0v-28.312189h10.368624c4.4376 0 8.619185-.555141 12.544755-1.6654229 3.925569-1.1102819 7.381777-2.818408 10.368623-5.1243781 2.986847-2.3059702 5.354989-5.2524876 7.104428-8.8395523 1.749438-3.5870646 2.624157-7.8146766 2.624157-12.6828358 0-5.0389718-.874719-9.2879353-2.624157-12.7468905-1.749439-3.4589553-4.117581-6.2346601-7.104428-8.32711447-2.986846-2.09245439-6.485723-3.58706467-10.496631-4.48383084s-8.320501-1.34514926-12.928778-1.34514926h-28.673725v83.52736317zm9.216555-43.300995h-9.216555v-25.2375622h8.704524c5.120308 0 9.045877.8967662 11.776708 2.6902985s4.096247 4.8681592 4.096247 9.2238806c0 8.8822554-5.120308 13.3233831-15.360924 13.3233831zm88.780451 43.300995v-67.641791h22.913378v-15.88557217h-64.771896v15.88557217h22.913378v67.641791zm95.692867 17.9353234v-10.6330846h-60.931665v10.6330846z" fill="#2d2d2a"/></svg>

<?xml version="1.0" encoding="UTF-8"?>
<svg width="802px" height="106px" viewBox="0 0 802 106" version="1.1" xmlns="http://www.w3.org/2000/svg" xmlns:xlink="http://www.w3.org/1999/xlink">
    <!-- Generator: Sketch 61.2 (89653) - https://sketch.com -->
    <title>logo-black</title>
    <desc>Created with Sketch.</desc>
    <g id="logo-black" stroke="none" stroke-width="1" fill="none" fill-rule="evenodd">
        <path d="M21.8171319,87.0646766 L21.8171319,56.9589552 L32.1857557,56.9589552 L48.1867182,87.0646766 L69.3079888,87.0646766 L50.3628491,53.6281095 C54.8857879,51.6637645 58.4913381,48.6958955 61.1794998,44.7245025 C63.8676615,40.7531095 65.2117424,35.6927861 65.2117424,29.5435323 C65.2117424,24.5899668 64.3583577,20.4477612 62.6515884,17.1169154 C60.944819,13.7860697 58.6406804,11.1171227 55.7391725,9.11007463 C52.8376647,7.10302653 49.4454606,5.67247098 45.5625604,4.81840796 C41.6796601,3.96434494 37.5194099,3.53731343 33.0818096,3.53731343 L33.0818096,3.53731343 L3,3.53731343 L3,87.0646766 L21.8171319,87.0646766 Z M31.5457172,41.9701493 L21.8171319,41.9701493 L21.8171319,18.5261194 L31.5457172,18.5261194 C36.4953483,18.5261194 40.2715754,19.3374793 42.8743987,20.960199 C45.4772219,22.5829187 46.7786335,25.4440299 46.7786335,29.5435323 C46.7786335,33.6430348 45.4772219,36.7390133 42.8743987,38.8314677 C40.2715754,40.9239221 36.4953483,41.9701493 31.5457172,41.9701493 L31.5457172,41.9701493 Z M142.087478,87.0646766 L142.087478,71.1791045 L107.397391,71.1791045 L107.397391,51.9626866 L135.8151,51.9626866 L135.8151,36.2052239 L107.397391,36.2052239 L107.397391,19.4228856 L140.807401,19.4228856 L140.807401,3.53731343 L88.5802588,3.53731343 L88.5802588,87.0646766 L142.087478,87.0646766 Z M200.658112,88.60199 C211.666774,88.60199 220.669982,84.5024876 227.667736,76.3034826 L227.667736,76.3034826 L217.683136,64.5174129 C215.635012,66.7379768 213.26687,68.5955638 210.578708,70.0901741 C207.890547,71.5847844 204.839696,72.3320896 201.426158,72.3320896 C195.281788,72.3320896 190.374826,69.9620647 186.705272,65.2220149 C183.035718,60.4819652 181.200941,53.7989221 181.200941,45.1728856 C181.200941,40.9879768 181.734306,37.2300995 182.801037,33.8992537 C183.867768,30.568408 185.318522,27.75 187.153299,25.4440299 C188.988076,23.1380597 191.164207,21.3658789 193.681692,20.1274876 C196.199177,18.8890962 198.866004,18.2699005 201.682173,18.2699005 C204.669019,18.2699005 207.335847,18.8890962 209.682654,20.1274876 C212.029462,21.3658789 214.269597,22.9672471 216.403059,24.931592 L216.403059,24.931592 L226.387659,12.8893035 C223.57149,9.98548922 220.029944,7.44465174 215.76302,5.26679104 C211.496097,3.08893035 206.674473,2 201.29815,2 C196.007165,2 190.972196,2.98217247 186.193241,4.94651741 C181.414287,6.91086235 177.232702,9.77197347 173.648487,13.5298507 C170.064271,17.287728 167.205433,21.8783167 165.071971,27.3016169 C162.938509,32.7249171 161.871778,38.8955224 161.871778,45.8134328 C161.871778,52.8167496 162.89584,58.9873549 164.943963,64.3252488 C166.992086,69.6631426 169.786921,74.1256219 173.328468,77.7126866 C176.870014,81.2997512 180.987595,84.0114013 185.681211,85.8476368 C190.374826,87.6838723 195.367127,88.60199 200.658112,88.60199 Z M276.637793,88.60199 C282.270132,88.60199 287.411774,87.598466 292.062721,85.5914179 C296.713667,83.5843698 300.70324,80.7019071 304.031441,76.9440299 C307.359641,73.1861526 309.941129,68.6169154 311.775907,63.2363184 C313.610684,57.8557214 314.528072,51.7491708 314.528072,44.9166667 C314.528072,38.1695688 313.610684,32.127073 311.775907,26.7891791 C309.941129,21.4512852 307.359641,16.9461028 304.031441,13.2736318 C300.70324,9.60116086 296.713667,6.80410448 292.062721,4.88246269 C287.411774,2.9608209 282.270132,2 276.637793,2 C271.005454,2 265.863811,2.9608209 261.212865,4.88246269 C256.561918,6.80410448 252.572345,9.57980929 249.244145,13.2095771 C245.915945,16.8393449 243.334456,21.3231758 241.499679,26.6610697 C239.664902,31.9989635 238.747513,38.0841625 238.747513,44.9166667 C238.747513,51.7491708 239.664902,57.8557214 241.499679,63.2363184 C243.334456,68.6169154 245.915945,73.1861526 249.244145,76.9440299 C252.572345,80.7019071 256.561918,83.5843698 261.212865,85.5914179 C265.863811,87.598466 271.005454,88.60199 276.637793,88.60199 Z M276.637793,72.3320896 C270.920116,72.3320896 266.397177,69.8766584 263.068977,64.965796 C259.740776,60.0549337 258.076676,53.3718905 258.076676,44.9166667 C258.076676,36.5468491 259.740776,30.013267 263.068977,25.3159204 C266.397177,20.6185738 270.920116,18.2699005 276.637793,18.2699005 C282.35547,18.2699005 286.878409,20.6185738 290.206609,25.3159204 C293.534809,30.013267 295.198909,36.5468491 295.198909,44.9166667 C295.198909,53.3718905 293.534809,60.0549337 290.206609,64.965796 C286.878409,69.8766584 282.35547,72.3320896 276.637793,72.3320896 Z M355.305636,87.0646766 L355.305636,57.471393 C355.305636,52.5178275 355.028286,47.3934494 354.473586,42.0982587 C353.918886,36.803068 353.428189,31.8495025 353.001497,27.2375622 L353.001497,27.2375622 L353.513528,27.2375622 L361.706021,45.4291045 L383.46733,87.0646766 L402.796493,87.0646766 L402.796493,3.53731343 L384.875415,3.53731343 L384.875415,33.0024876 C384.875415,37.9560531 385.152765,43.1658375 385.707465,48.6318408 C386.262165,54.0978441 386.752861,59.0514096 387.179553,63.4925373 L387.179553,63.4925373 L386.667522,63.4925373 L378.47503,45.0447761 L356.71372,3.53731343 L337.384558,3.53731343 L337.384558,87.0646766 L355.305636,87.0646766 Z M464.439311,88.60199 C475.447974,88.60199 484.451182,84.5024876 491.448936,76.3034826 L491.448936,76.3034826 L481.464336,64.5174129 C479.416212,66.7379768 477.04807,68.5955638 474.359908,70.0901741 C471.671746,71.5847844 468.620896,72.3320896 465.207358,72.3320896 C459.062988,72.3320896 454.156026,69.9620647 450.486472,65.2220149 C446.816918,60.4819652 444.982141,53.7989221 444.982141,45.1728856 C444.982141,40.9879768 445.515506,37.2300995 446.582237,33.8992537 C447.648968,30.568408 449.099722,27.75 450.934499,25.4440299 C452.769276,23.1380597 454.945407,21.3658789 457.462892,20.1274876 C459.980376,18.8890962 462.647204,18.2699005 465.463373,18.2699005 C468.450219,18.2699005 471.117046,18.8890962 473.463854,20.1274876 C475.810662,21.3658789 478.050797,22.9672471 480.184259,24.931592 L480.184259,24.931592 L490.168859,12.8893035 C487.35269,9.98548922 483.811143,7.44465174 479.54422,5.26679104 C475.277297,3.08893035 470.455673,2 465.07935,2 C459.788365,2 454.753395,2.98217247 449.974441,4.94651741 C445.195487,6.91086235 441.013902,9.77197347 437.429687,13.5298507 C433.845471,17.287728 430.986632,21.8783167 428.853171,27.3016169 C426.719709,32.7249171 425.652978,38.8955224 425.652978,45.8134328 C425.652978,52.8167496 426.67704,58.9873549 428.725163,64.3252488 C430.773286,69.6631426 433.568121,74.1256219 437.109667,77.7126866 C440.651214,81.2997512 444.768795,84.0114013 449.46241,85.8476368 C454.156026,87.6838723 459.148326,88.60199 464.439311,88.60199 Z M564.740456,87.0646766 L564.740456,71.1791045 L530.050369,71.1791045 L530.050369,51.9626866 L558.468078,51.9626866 L558.468078,36.2052239 L530.050369,36.2052239 L530.050369,19.4228856 L563.460379,19.4228856 L563.460379,3.53731343 L511.233237,3.53731343 L511.233237,87.0646766 L564.740456,87.0646766 Z M607.310127,87.0646766 L607.310127,58.7524876 L617.678751,58.7524876 C622.116351,58.7524876 626.297936,58.1973466 630.223506,57.0870647 C634.149075,55.9767828 637.605283,54.2686567 640.592129,51.9626866 C643.578976,49.6567164 645.947118,46.710199 647.696557,43.1231343 C649.445995,39.5360697 650.320714,35.3084577 650.320714,30.4402985 C650.320714,25.4013267 649.445995,21.1523632 647.696557,17.693408 C645.947118,14.2344527 643.578976,11.4587479 640.592129,9.36629353 C637.605283,7.27383914 634.106406,5.77922886 630.095498,4.88246269 C626.08459,3.98569652 621.774997,3.53731343 617.16672,3.53731343 L617.16672,3.53731343 L588.492995,3.53731343 L588.492995,87.0646766 L607.310127,87.0646766 Z M616.526682,43.7636816 L607.310127,43.7636816 L607.310127,18.5261194 L616.014651,18.5261194 C621.134959,18.5261194 625.060528,19.4228856 627.791359,21.2164179 C630.52219,23.0099502 631.887606,26.0845771 631.887606,30.4402985 C631.887606,39.3225539 626.767298,43.7636816 616.526682,43.7636816 L616.526682,43.7636816 Z M705.307133,87.0646766 L705.307133,19.4228856 L728.220511,19.4228856 L728.220511,3.53731343 L663.448615,3.53731343 L663.448615,19.4228856 L686.361993,19.4228856 L686.361993,87.0646766 L705.307133,87.0646766 Z M801,105 L801,94.3669154 L740.068335,94.3669154 L740.068335,105 L801,105 Z" id="RECONCEPT_" fill="#2D2D2A" fill-rule="nonzero"></path>
    </g>
</svg>
